src/assets/skills/dedication.svg

<svg fill="none" height="737" viewBox="0 0 737 737" width="737" xmlns="http://www.w3.org/2000/svg" xmlns:xlink="http://www.w3.org/1999/xlink"><pattern id="a" height="1" patternContentUnits="objectBoundingBox" width="1"><image xlink:href="data:image/png;base64,iVBORw0KGgoAAAANSUhEUgAAAMoAAADMCAYAAAAyPDy1AAAAGXRFWHRTb2Z0d2FyZQBBZG9iZSBJ"/></pattern><linearGradient id="b" gradientUnits="userSpaceOnUse" x1="369.074" x2="369.074" y1="0" y2="737"><stop offset=".00225706" stop-color="#2b5355"/><stop offset="1"/></linearGradient><clipPath id="c"><rect height="737" rx="368.5" width="737"/></clipPath><g clip-path="url(#c)"><path d="m.574066 368.5c0-203.517 164.982934-368.5 368.499934-368.5 203.517 0 368.5 164.983 368.5 368.5 0 203.517-164.983 368.5-368.5 368.5-203.517 0-368.499934-164.983-368.499934-368.5z" fill="url(#b)"/><path d="m316.68 666.01h359.555m-651.235-864.01 461.165 1378.61zm362.159 0 461.164 1378.61zm-304.9703 160.6385h359.5543zm46.8973 140.6725h359.554zm46.9 140.677h359.554zm46.897 140.672h359.555zm46.9 140.673h359.554z" stroke="#e1e4e5" stroke-width="10"/><path d="m754.406 775.716c9.009 6.17 16.182 17.816 19.04 28.584 2.109 8.305 3.288 16.762 5.397 25.067 2.438 9.245 7.991 15.19 13.33 22.861 1.814 2.585 3.66 5.365 5.054 8.317 1.368 2.757 1.044 6.292 4.382 5.742 3.339-.553 4.393-4.903 4.324-7.877-.29-7.61-4.868-12.124-8.401-17.905.555-.095 1.007-.267 1.639-.47 5.006 6.732 8.462 14.514 12.257 22.044 3.251 6.426 7.349 14.7 12.65 19.592 2.098 1.943 5.163 2.73 7.837 2.188 2.117-.451 4.215-2.288 3.894-4.422-.146-.971-.741-1.768-.595-2.688.098-.612.489-1.173.985-1.654 1.201-1.49 2.324-2.871 3.525-4.361 2.247-2.757-.731-10.52-.622-14.22.029-1.695.457-3.257.595-4.872.332-2.838.292-5.617-.117-8.336-2.456-16.301-16.453-25.926-27.217-36.183-13.566-13.077-23.083-30.799-26.612-49.81zm-405.794-467.237c-1.187-11.043-2.486-22.166-3.753-33.098-1.121-9.958-3.229-20.153-3.131-30.215.13-6.087 1.214-12.135 2.403-18.1.694-3.597 1.387-7.19 2.988-10.44 2.324-4.758 11.638-12.96 8.103-18.741-6.958 5.525-13.948 10.856-21.913 14.756-2.292 1.175-4.802 2.187-7.458 2.226-3.131.02-6.13-1.573-8.754-3.23-9.322-5.72-17.422-13.433-23.892-22.31-6.226-8.519-12.687-16.702-18.15-25.846-.383-.634-.656-1.184-1.27-1.482-1.044-.622-2.361.092-3.28.94-2.85 3.157-1.981 8.285-.178 12.065 1.671 3.502 5.641 8.416 5.514 12.616-.176 4.503-5.153 7.413-4.236 12.235.369 1.829 1.532 3.23 1.981 4.945 1.15 4.483-2.773 8.714-3.506 13.308-.937 5.128 2.106 10.195 5.269 14.15 7.054 8.978 15.79 16.488 25.481 22.147 7.389 4.252 7.428 14.589 8.374 23.383.945 8.795.563 17.611.582 26.558-.011 1.195.01 2.585.663 3.769.518.912 1.27 1.481 2.205 2.023 6.217 4.047 13.773 4.987 21.162 5.459 2.499.184 5.182.337 7.612-.561 2.509-1.012 7.487-3.922 7.184-6.557z" fill="#ffc8bc"/><path d="m522.505 295.073c-8.395 9.244-10.339 22.197-7.96 34.832 1.982 10.615 7.641 20.421 15.909 26.713 1.179.901 2.547 1.768 4.087 1.913 3.827.164 5.78-4.536 6.815-8.386 1.719-6.251 1.719-11.921 2.696-18.05.977-6.128 5.155-11.195 4.961-17.527-.244-6.029 2.802-23.636-1.715-27.764-5.514-5.059-18.371 2.338-22.724 6.237-.683.512-1.336 1.215-2.069 2.032z" fill="#56332b"/><path d="m604.261 258.799s36.81-2.145 39.636 67.185c3.134 77.077 33.231 67.783 72.801 134.465 23.127 38.962-11.458 99.429-68.565 91.836-57.112-7.561-107.013-30.958-140.7-27.036-33.685 3.922-26.397-86.363 8.894-110.564 35.292-24.201-25.905-111.678 19.887-142.55 45.796-30.874 68.047-13.336 68.047-13.336z" fill="#56332b"/><path d="m514.768 373.638c-.112 4.909-.132 9.819-.061 14.728.332 8.5 13.84 11.741 19.765 13.845 2.802.931 5.601 1.859 8.451 2.482 1.171.205 5.604-.028 6.356.542 3.298 2.34 4.534 25.232 5.779 31.456 4.833 24.168 23.65 24.894 48.993 15.397-3.697-38.379 10.939-78.091.334-115.028-4.411-15.384-13.154-29.256-24.798-39.668-7.582-6.804-24.059-17.113-33.918-10.014-2.996 2.184-5.181 5.331-7.078 8.527-14.018 23.003-22.824 50.316-23.823 77.733z" fill="#ffc8bc"/><path d="m796.608 586.124c4.13-6.921 4.781-15.423 4.353-23.47-1.872-34.54-21.744-65.431-45.708-89.106-24.043-23.74-52.467-41.934-78.09-63.658-6.651-5.656-13.277-11.685-21.21-15.223-7.931-3.536-17.487-4.306-24.814.478-5.174 3.352-8.542 9.05-10.754 14.875-4.85 12.753-4.908 26.822-4.103 40.391.985 17.116 3.248 34.196 8.164 50.37 3.931 13.041 11.086 26.807 23.536 30.654 2.17 15.307 8.324 30.11 17.856 41.97 10.899 13.594 25.478 23.306 40.882 30.668 14.193 6.793 29.945 11.946 45.232 8.764 9.067-1.837 17.351-6.387 25.475-11.062 7.224-3.95 14.751-8.314 19.181-15.651zm-130.693-37.353-7.227-15.393c1.83.406 3.541.976 5.23 1.921 4.549 2.687 6.629 10.865 1.997 13.472z" fill="#56332b"/><path d="m555.058 436.69c-13.692 6.224-25.108 18.086-40.549 19.045-19.688 1.161-41.376.97-61.054-.953-53.552-5.133-68.19-46.997-82.369-94.316-2.117-7.11-21.067-69.128-19.983-69.503-14.015 4.102-28.431 6.184-42.927 6.49-.098 6.282-1.591 13.391-1.692 19.673-.196 14.453-.284 28.99.925 43.312 3.274 38.743 21.211 76.785 43.393 107.932 31.687 44.399 87.342 44.693 138.927 57.161-2.52 15.435-7.016 57.188 0 70.95 10.892 21.176 23.109 36.663 26.689 61.036 3.172 21.655 1.812 44.157-4.135 65.231-.558 1.982-1.192 4.075-1.054 6.24.125 1.473.438 2.913 1.014 4.208 3.416 8.786 10.725 15.04 17.869 20.821 31.855 25.971 72.32 46.639 111 59.25 32.463 10.453 67.855 13.858 100.456 3.799-25.21-25.376-30.386-63.507-39.275-97.247-5.494-20.861-48.006-101.687-34.667-120.887 18.004 32.436 28.898 69.778 28.898 69.778s29.344 89.439 58.701 127.936c15.285 1.156 31.332-3.981 41.982-15.287-8.701-35.661-36.77-93.235-36.77-93.235l-53.603-125.436s-21.557-52.685-49.317-73.678c-10.737-8.171-21.969-15.865-33.174-23.364-8.088-5.442-13.273-10.864-20.741-17.753-4.054 5.635-19.332 12.101-31.118 7.842-9.149-3.307-15.26-7.498-17.426-19.045z" fill="#2ccbd3"/><path d="m481.401 422.55 216.862 165.097-159.319 229.2-216.862-165.097z" fill="url(#a)"/><path d="m275.179 95.7619c-4.205-3.8579-10.82-1.5037-11.912 4.2359l-25.68 135.3232c-1.091 5.74 4.165 10.559 9.46 8.677l124.824-44.385c5.293-1.881 6.656-9.055 2.452-12.913z" fill="#fff"/></g></svg>

<svg width="737" height="737" viewBox="0 0 737 737" fill="none" xmlns="http://www.w3.org/2000/svg" xmlns:xlink="http://www.w3.org/1999/xlink">
<g clip-path="url(#clip0_108_196)">
<path d="M0.574066 368.5C0.574066 164.983 165.557 0 369.074 0V0C572.591 0 737.574 164.983 737.574 368.5V368.5C737.574 572.017 572.591 737 369.074 737V737C165.557 737 0.574066 572.017 0.574066 368.5V368.5Z" fill="url(#paint0_linear_108_196)"/>
<path d="M316.68 666.01H676.235M25 -198L486.165 1180.61L25 -198ZM387.159 -198L848.323 1180.61L387.159 -198ZM82.1887 -37.3615H441.743H82.1887ZM129.086 103.311H488.64H129.086ZM175.986 243.988H535.54H175.986ZM222.883 384.66H582.438H222.883ZM269.783 525.333H629.337H269.783Z" stroke="#E1E4E5" stroke-width="10"/>
<path d="M754.406 775.716C763.415 781.886 770.588 793.532 773.446 804.3C775.555 812.605 776.734 821.062 778.843 829.367C781.281 838.612 786.834 844.557 792.173 852.228C793.987 854.813 795.833 857.593 797.227 860.545C798.595 863.302 798.271 866.837 801.609 866.287C804.948 865.734 806.002 861.384 805.933 858.41C805.643 850.8 801.065 846.286 797.532 840.505C798.087 840.41 798.539 840.238 799.171 840.035C804.177 846.767 807.633 854.549 811.428 862.079C814.679 868.505 818.777 876.779 824.078 881.671C826.176 883.614 829.241 884.401 831.915 883.859C834.032 883.408 836.13 881.571 835.809 879.437C835.663 878.466 835.068 877.669 835.214 876.749C835.312 876.137 835.703 875.576 836.199 875.095C837.4 873.605 838.523 872.224 839.724 870.734C841.971 867.977 838.993 860.214 839.102 856.514C839.131 854.819 839.559 853.257 839.697 851.642C840.029 848.804 839.989 846.025 839.58 843.306C837.124 827.005 823.127 817.38 812.363 807.123C798.797 794.046 789.28 776.324 785.751 757.313L754.406 775.716ZM348.612 308.479C347.425 297.436 346.126 286.313 344.859 275.381C343.738 265.423 341.63 255.228 341.728 245.166C341.858 239.079 342.942 233.031 344.131 227.066C344.825 223.469 345.518 219.876 347.119 216.626C349.443 211.868 358.757 203.666 355.222 197.885C348.264 203.41 341.274 208.741 333.309 212.641C331.017 213.816 328.507 214.828 325.851 214.867C322.72 214.887 319.721 213.294 317.097 211.637C307.775 205.917 299.675 198.204 293.205 189.327C286.979 180.808 280.518 172.625 275.055 163.481C274.672 162.847 274.399 162.297 273.785 161.999C272.741 161.377 271.424 162.091 270.505 162.939C267.655 166.096 268.524 171.224 270.327 175.004C271.998 178.506 275.968 183.42 275.841 187.62C275.665 192.123 270.688 195.033 271.605 199.855C271.974 201.684 273.137 203.085 273.586 204.8C274.736 209.283 270.813 213.514 270.08 218.108C269.143 223.236 272.186 228.303 275.349 232.258C282.403 241.236 291.139 248.746 300.83 254.405C308.219 258.657 308.258 268.994 309.204 277.788C310.149 286.583 309.767 295.399 309.786 304.346C309.775 305.541 309.796 306.931 310.449 308.115C310.967 309.027 311.719 309.596 312.654 310.138C318.871 314.185 326.427 315.125 333.816 315.597C336.315 315.781 338.998 315.934 341.428 315.036C343.937 314.024 348.915 311.114 348.612 308.479Z" fill="#FFC8BC"/>
<path d="M522.505 295.073C514.11 304.317 512.166 317.27 514.545 329.905C516.527 340.52 522.186 350.326 530.454 356.618C531.633 357.519 533.001 358.386 534.541 358.531C538.368 358.695 540.321 353.995 541.356 350.145C543.075 343.894 543.075 338.224 544.052 332.095C545.029 325.967 549.207 320.9 549.013 314.568C548.769 308.539 551.815 290.932 547.298 286.804C541.784 281.745 528.927 289.142 524.574 293.041C523.891 293.553 523.238 294.256 522.505 295.073V295.073Z" fill="#56332B"/>
<path d="M604.261 258.799C604.261 258.799 641.071 256.654 643.897 325.984C647.031 403.061 677.128 393.767 716.698 460.449C739.825 499.411 705.24 559.878 648.133 552.285C591.021 544.724 541.12 521.327 507.433 525.249C473.748 529.171 481.036 438.886 516.327 414.685C551.619 390.484 490.422 303.007 536.214 272.135C582.01 241.261 604.261 258.799 604.261 258.799V258.799Z" fill="#56332B"/>
<path d="M514.768 373.638C514.656 378.547 514.636 383.457 514.707 388.366C515.039 396.866 528.547 400.107 534.472 402.211C537.274 403.142 540.073 404.07 542.923 404.693C544.094 404.898 548.527 404.665 549.279 405.235C552.577 407.575 553.813 430.467 555.058 436.691C559.891 460.859 578.708 461.585 604.051 452.088C600.354 413.709 614.99 373.997 604.385 337.06C599.974 321.676 591.231 307.804 579.587 297.392C572.005 290.588 555.528 280.279 545.669 287.378C542.673 289.562 540.488 292.709 538.591 295.905C524.573 318.908 515.767 346.221 514.768 373.638Z" fill="#FFC8BC"/>
<path d="M796.608 586.124C800.738 579.203 801.389 570.701 800.961 562.654C799.089 528.114 779.217 497.223 755.253 473.548C731.21 449.808 702.786 431.614 677.163 409.89C670.512 404.234 663.886 398.205 655.953 394.667C648.022 391.131 638.466 390.361 631.139 395.145C625.965 398.497 622.597 404.195 620.385 410.02C615.535 422.773 615.477 436.842 616.282 450.411C617.267 467.527 619.53 484.607 624.446 500.781C628.377 513.822 635.532 527.588 647.982 531.435C650.152 546.742 656.306 561.545 665.838 573.405C676.737 586.999 691.316 596.711 706.72 604.073C720.913 610.866 736.665 616.019 751.952 612.837C761.019 611 769.303 606.45 777.427 601.775C784.651 597.825 792.178 593.461 796.608 586.124V586.124ZM665.915 548.771L658.688 533.378C660.518 533.784 662.229 534.354 663.918 535.299C668.467 537.986 670.547 546.164 665.915 548.771V548.771Z" fill="#56332B"/>
<path d="M555.058 436.69C541.366 442.914 529.95 454.776 514.509 455.735C494.821 456.896 473.133 456.705 453.455 454.782C399.903 449.649 385.265 407.785 371.086 360.466C368.969 353.356 350.019 291.338 351.103 290.963C337.088 295.065 322.672 297.147 308.176 297.453C308.078 303.735 306.585 310.844 306.484 317.126C306.288 331.579 306.2 346.116 307.409 360.438C310.683 399.181 328.62 437.223 350.802 468.37C382.489 512.769 438.144 513.063 489.729 525.531C487.209 540.966 482.713 582.719 489.729 596.481C500.621 617.657 512.838 633.144 516.418 657.517C519.59 679.172 518.23 701.674 512.283 722.748C511.725 724.73 511.091 726.823 511.229 728.988C511.354 730.461 511.667 731.901 512.243 733.196C515.659 741.982 522.968 748.236 530.112 754.017C561.967 779.988 602.432 800.656 641.112 813.267C673.575 823.72 708.967 827.125 741.568 817.066C716.358 791.69 711.182 753.559 702.293 719.819C696.799 698.958 654.287 618.132 667.626 598.932C685.63 631.368 696.524 668.71 696.524 668.71C696.524 668.71 725.868 758.149 755.225 796.646C770.51 797.802 786.557 792.665 797.207 781.359C788.506 745.698 760.437 688.124 760.437 688.124L706.834 562.688C706.834 562.688 685.277 510.003 657.517 489.01C646.78 480.839 635.548 473.145 624.343 465.646C616.255 460.204 611.07 454.782 603.602 447.893C599.548 453.528 584.27 459.994 572.484 455.735C563.335 452.428 557.224 448.237 555.058 436.69Z" fill="#2CCBD3"/>
<path d="M481.401 422.55L698.263 587.647L538.944 816.847L322.082 651.75L481.401 422.55Z" fill="url(#pattern0)"/>
<path d="M275.179 95.7619C270.974 91.904 264.359 94.2582 263.267 99.9978L237.587 235.321C236.496 241.061 241.752 245.88 247.047 243.998L371.871 199.613C377.164 197.732 378.527 190.558 374.323 186.7L275.179 95.7619V95.7619Z" fill="white"/>
</g>
<defs>
<pattern id="pattern0" patternContentUnits="objectBoundingBox" width="1" height="1">
<use xlink:href="#image0_108_196"/>
</pattern>
<linearGradient id="paint0_linear_108_196" x1="369.074" y1="0" x2="369.074" y2="737" gradientUnits="userSpaceOnUse">
<stop offset="0.00225706" stop-color="#2B5355"/>
<stop offset="1"/>
</linearGradient>
<clipPath id="clip0_108_196">
<rect width="737" height="737" rx="368.5" fill="white"/>
</clipPath>
<image id="image0_108_196" xlink:href="data:image/png;base64,iVBORw0KGgoAAAANSUhEUgAAAMoAAADMCAYAAAAyPDy1AAAAGXRFWHRTb2Z0d2FyZQBBZG9iZSBJ"/>
</defs>
</svg>
